img/location.svg

<svg width="25" height="24" viewBox="0 0 25 24" fill="none" xmlns="http://www.w3.org/2000/svg">
<path fill-rule="evenodd" clip-rule="evenodd" d="M6.5 10C6.5 6.68629 9.18629 4 12.5 4C15.8137 4 18.5 6.68629 18.5 10C18.5 10.4933 18.3357 11.1554 17.9953 11.9624C17.6605 12.7557 17.185 13.6209 16.6328 14.5002C15.5285 16.2585 14.1662 17.9967 13.1553 19.2132C12.8055 19.6341 12.1945 19.6341 11.8447 19.2132C10.8338 17.9967 9.47145 16.2585 8.36718 14.5002C7.81497 13.6209 7.33947 12.7557 7.00474 11.9624C6.66426 11.1554 6.5 10.4933 6.5 10ZM12.5 2C8.08172 2 4.5 5.58172 4.5 10C4.5 10.8792 4.77687 11.827 5.16204 12.7399C5.55296 13.6664 6.08762 14.631 6.6735 15.5639C7.84539 17.4298 9.27087 19.2452 10.3065 20.4915C11.456 21.8747 13.544 21.8747 14.6935 20.4915C15.7291 19.2452 17.1546 17.4298 18.3265 15.5639C18.9124 14.631 19.447 13.6664 19.838 12.7399C20.2231 11.827 20.5 10.8792 20.5 10C20.5 5.58172 16.9183 2 12.5 2ZM10.5 10C10.5 8.89543 11.3954 8 12.5 8C13.6046 8 14.5 8.89543 14.5 10C14.5 11.1046 13.6046 12 12.5 12C11.3954 12 10.5 11.1046 10.5 10ZM12.5 6C10.2909 6 8.5 7.79086 8.5 10C8.5 12.2091 10.2909 14 12.5 14C14.7091 14 16.5 12.2091 16.5 10C16.5 7.79086 14.7091 6 12.5 6Z" fill="white"/>
</svg>

<svg width="25" height="24" fill="none" xmlns="http://www.w3.org/2000/svg"><path fill-rule="evenodd" clip-rule="evenodd" d="M6.5 10a6 6 0 1 1 12 0c0 .493-.164 1.155-.505 1.962-.335.794-.81 1.659-1.362 2.538-1.104 1.759-2.467 3.497-3.478 4.713-.35.421-.96.421-1.31 0-1.011-1.216-2.374-2.954-3.478-4.713-.552-.88-1.028-1.744-1.362-2.538-.34-.807-.505-1.469-.505-1.962Zm6-8a8 8 0 0 0-8 8c0 .88.277 1.827.662 2.74.391.926.926 1.891 1.511 2.824 1.172 1.866 2.598 3.681 3.633 4.927a2.838 2.838 0 0 0 4.388 0c1.035-1.246 2.46-3.061 3.632-4.927.586-.933 1.121-1.898 1.512-2.824.385-.913.662-1.86.662-2.74a8 8 0 0 0-8-8Zm-2 8a2 2 0 1 1 4 0 2 2 0 0 1-4 0Zm2-4a4 4 0 1 0 0 8 4 4 0 0 0 0-8Z" fill="#fff"/></svg>
